X:1
T:El amanecer
T:El amanecer TANGO
T:Música: Roberto Firpo Arreglo: Javier Tucat Moreno *
T:www.tangoalpiano.com
T:www.tangoalpiano.com
C:Roberto Firpo
Z:www.tangoalpiano.com
%%score { 1 | 2 }
L:1/8
Q:1/4=96
M:2/2
K:Eb
V:1 treble nm="Piano" snm="Pno."
V:2 treble 
V:1
!8va(! z .!2!d'.e'.f' z .f'.e'.d' | z .!1!c'.d'.e' z .e'.d'.c' | z .d'.e'.f' z .f'.e'.d' | %3
 z .c'.d'.e' z .e'.d'.c' | z .!2!f'.g'.a' z .a'.g'.f' | z .!2!e'.f'.g' z .g'.f'.e' | %6
 z .!2!d'.e'.f' z .f'.e'.d' | .c'2 z2 z4!8va)! | %8
 z .!1!!2![=Bd].!1!!3![ce].!2!!4![df] z .[df].[ce].[Bd] | z .c.d.e z .e.d.c | %10
 z .[=Bd].[ce].[df] z .[df].[ce].[Bd] | z .c.d.e z .e.d.c | z .f.g.a z .a.g.f | z .e.f.g z .g.f.e | %14
 z .d.e.f z .f.e.d | .c2 z2 z4 | (!1!!2!!5![ceg]3 .!4!^f) ([ceg]3 .f) | %17
 !1!!2!!5![=Bdg]2 z .f ([Bdf]=e f2) | ([=Bdf]3 .=e) ([Bdf]3 .g) | %19
 !1!!4![cf]2 z .!3!e (!1!!2!!4![Gce]d e2) | (!1!G, !2!C2 D E3 F | E2) z .D (D^C D2) | %22
 z2 (f2 d2 G2 | PA3 G) (!1!G!2!^F !1!G2) | z ([ceg]2 .^f) ([ceg]3 .f) | [=Bdg]2 z .f ([Bdf]=e f2) | %26
 z ([=Bdf]2 .=e) ([Bdf]3 .g) | [cf]2 z .e ([Gce]d e2) | z (!3!D2 E FEDC | %29
 =B,2) (!2!G,A, _B,A,G,F,) | z2 .!2!!3!!5![EGc]2 z2 .!1!!2!!5![DF=B]2 | [EGc]2 z2 z4 || %32
[K:C]{!1!F!2!^F} !3!G2 [Ec]2 z !2!GAG | F2 B2 [Fd]2 z2 | !2!F2 [DB]2 z FBF | E2 G2 [Ec]2 z2 | %36
 (!1!G2 !4!e3 ^def | e3 d) (d^c d2) | (!1!F2 !4!d3 ^cde | d c2 B c2) z2 |{F^F} G2 [Ec]2 z GAG | %41
 F2 B2 [Fd]2 z2 | !2!F2 [DB]2 z FBF | E2 G2 [Ec]2 z2 | z (!1!_A!2!c!3!_e .!5!_a2) .[cea]2 | %45
 !1!!2!!5![Bdg]2 z2 z4 | z8 | z2 !3!_E2 D2 C2 ||[K:Eb] z .[=Bd].[ce].[df] z .[df].[ce].[Bd] | %49
 z .c.d.e z .e.d.c | z .[=Bd].[ce].[df] z .[df].[ce].[Bd] | z .c.d.e z .e.d.c | z .f.g.a z .a.g.f | %53
 z .e.f.g z .g.f.e | z .d.e.f z .f.e.d | !breath!.c2 .[=Bdfg]2 !tenuto!.[egc']2 z2 |] %56
V:2
 !5!G2 z2 z (!3!=Bcd | c2) z2 (!3!B2 A2 | G2) z2 z (=Bcd | c2) z2 (!2!B2 A2 | F2) z2 !3!A2 z2 | %5
 !5!E2 z2 !3!G2 z2 | !2!A2 z2 !1!G2 z2 | !breath!!5!C2[K:bass] !1!C2 B,2 A,2 | !4!G,4 !2!=B,4 | %9
 (!1!C!3!EFG) z (GFE | !1!D4) !2!=B,4 | (!1!C!3!EFG) z (GFE) | !5!A,4 !1!C4 | !5!G,4 !1!C4 | %14
 !5!D,4 !1!G,4 | !breath!!5!C,2 (!1!G,,2 !5!C,,2) z (C,, | C,3) (E,, E,3) (D,, | %17
 D,2) z2 G,,,2 z (G,, | G,3) (=B,, =B,3) (C, | C2) z2 C,,2 z2 | %20
 (!5!E,, !3!A,,2 !2!B,, !1!C,3 !2!D, | !1!C,2) z .=B,, (B,,^A,, B,,2) | %22
 G,,,2 z2 !4!!1![F,=B,]2 z2 | [E,C]2 z2 [C,E,G,]2 z2 | (C,, C,2) (E,, E,3) (D,, | %25
 D,2) z2 G,,,2 z2 | (G,, G,2) (=B,, =B,3) (C, | C2) z2 C,,2 z2 | ([A,,,A,,]8 | %29
 [G,,,G,,]2) (!4!G,,A,, B,,A,,!1!G,,F,, | E,,2) z2 D,,2 z2 | %31
 !tenuto!C,,2 !tenuto!G,,2 !tenuto!C,2 z2 ||[K:C] !1!E,2 z2 !3!C,2 z2 | !2!D,2 z2 z2 G,,2 | %34
 (!1!G,3 !2!_G, !1!F,2 !4!D,2 | !5!C,2) z2 z2 G,,2 | .[C,E,G,]2 z2 .[C,E,G,]2 z2 | %37
 .[B,,D,F,G,]2 z2 .[B,,D,F,G,]2 z2 | .[B,,D,F,G,]2 z2 .[B,,D,F,G,]2 z2 | %39
 .[C,E,G,]2 z2 .[C,E,G,]2 ([F,G,]2 | .[E,G,]2) z2 [C,E,G,]2 z2 | [B,,D,F,G,]2 z2 z2 G,,2 | %42
 (G,3 _G, !1!F,2 D,2 | C,2) z2 z2 !5!G,,2 | !4!_A,,8 | G,,2 (!3!B,C D2 B,2 | %46
 !1!G,2 !2!F,2 !4!D,2 !5!B,,2 | !breath!C,2) C2 _B,2 _A,2 ||[K:Eb] !4!G,4 !2!=B,4 | %49
 (!1!C!3!EFG) z (GFE | !1!D4) !2!=B,4 | (!1!C!3!EFG) z (GFE) | %52
"_* La introducción está basada en la del arreglo para piano solo de Beba Pugliese" !5!A,4 !1!C4 | %53
 !5!G,4 !1!C4 | !5!D,4 !1!G,4 | !breath!.C,2 (G,,2 !tenuto!.C,,2) z2 |] %56

